!!!COM: Music21
!!!OTL: reel_Musical-Chisholm-Household--The
!!!OMV: reel_Musical-Chisholm-Household--The
**kern
*clefG2
*k[f#]
*M4/4
=1
4dd
4ee
8bL
8aJ
8aL
8bJ
=
8eeL
8ddJ
8ddL
8bJ
8eeL
8ggJ
8ggL
8eeJ
=
4dd
8ddL
8eeJ
8dL
8eJ
4g
=
8dL
8eJ
8gL
8aJ
8bL
8ddJ
8ggL
8eeJ
=
4dd
4ee
8bL
8aJ
8aL
8bJ
=
8eeL
8ddJ
8ddL
8bJ
8eeL
8ggJ
8ggL
8aaJ
!!linebreak:original
=
4bb
4aa
4gg
8eeL
8ddJ
=
8ggL
8eeJ
8ddL
8ggJ
8bL
8aJ
8aL
8bJ
=||
*M4/4
4dd
4ee
8bL
8aJ
8aL
8bJ
=
8eeL
8ddJ
8ddL
8bJ
8eeL
8ggJ
8ggL
8eeJ
=
4dd
8ddL
8eeJ
8dL
8eJ
4g
!!linebreak:original
=
8dL
8eJ
8gL
8aJ
8bL
8ddJ
8ggL
8eeJ
=
4dd
4ee
8bL
8aJ
8aL
8bJ
=
8eeL
8ddJ
8ddL
8bJ
8eeL
8ggJ
8ggL
8aaJ
=
4bb
4aa
4gg
8eeL
8ddJ
=
8ggL
8eeJ
8ddL
8ggJ
8bL
8aJ
8aL
8ddJ
!!linebreak:original
=||
8eeL
8aaJ
8aaL
8ddJ
8eeL
8aaJ
8aaL
8ddJ
=
8eeL
8aaJ
8aaL
8ggJ
8eeL
8ddJ
8bL
8ddJ
=
8eeL
8ff#J
4gg
8aaL
8ff#J
8ggL
8ddJ
=
8eeL
8ff#J
8ggL
8eeJ
8ddL
8bJ
8bL
8ddJ
=
8eeL
8aaJ
8aaL
8ddJ
8eeL
8aaJ
8aaL
8ddJ
!!linebreak:original
=
8eeL
8aaJ
8aaL
8ggJ
8eeL
8ddJ
8bL
8ddJ
=
8eeL
8ff#J
4gg
8aaL
8ff#J
8ggL
8ddJ
=
8eeL
8ff#J
8ggL
8ddJ
8bL
8aJ
8aL
8ddJ
=||
8eeL
8aaJ
8aaL
8ddJ
8eeL
8aaJ
8aaL
8ddJ
=
8eeL
8aaJ
8aaL
8ggJ
8eeL
8ddJ
8bL
8ddJ
!!linebreak:original
=
8eeL
8ff#J
4gg
8aaL
8ff#J
8ggL
8ddJ
=
8eeL
8ff#J
8ggL
8eeJ
8ddL
8bJ
8bL
8ddJ
=
8eeL
8aaJ
8aaL
8ddJ
8eeL
8aaJ
8aaL
8ddJ
=
8eeL
8aaJ
8aaL
8ggJ
8eeL
8ddJ
8bL
8ddJ
=
8eeL
8ff#J
4gg
8aaL
8ff#J
8ggL
8ddJ
!!linebreak:original
=
8eeL
8ff#J
8ggL
8ddJ
8bL
8aJ
8aL
8bJ
=||
*-
